X:1
T:Ashland (Smith), 11.11.11.11
T:Ashland (Smith), 11.11.11.11
T:Lucia May Smith, 1918
T:Public Domain Courtesy of the Cyber Hymnal™
C:Lucia May Smith, 1918
Z:Public Domain
Z:Courtesy of the Cyber Hymnal™
%%score ( 1 2 ) ( 3 4 )
L:1/8
Q:1/4=130
M:3/4
K:Eb
V:1 treble 
V:2 treble 
V:3 bass 
V:4 bass 
V:1
 [EG]2 | [EG]2 [DB]2 [DA]2 | [EG]2 E2 [DF]2 | [EG]2 [EB]2 [EA]2 | [EG]4 [EG][EG] | %5
 [DF]2 [DG]2 [DF]2 | [B,E]2 [EG]2 [GB]2 | [Ec]2 [EF]2 [Ec]2 | [DB]4 [DB][DB] | [Ec]2 [Fd]2 [Ec]2 | %10
 [=EB]2 [EA]2 [EG]2 | [FA]2 [FB]2 [DA]2 | [EG]4 [EG][EG] | [DF]2 [EG]2 [FA]2 | [EB]2 E2 [CA]2 | %15
 [B,G]2 [CA]2 [DF]2 | [B,E]4 |] %17
V:2
 x2 | x6 | x2 E2 x2 | x6 | x6 | x6 | x6 | x6 | x6 | x6 | x6 | x6 | x6 | x6 | x2 E2 x2 | x6 | x4 |] %17
V:3
 [E,B,]2 | [E,B,]2 [B,,B,]2 [B,,B,]2 | [E,B,]2 [E,G,]2 [E,A,]2 | [E,B,]2 [E,D]2 [E,C]2 | %4
 [E,B,]4 [E,B,][E,B,] | [B,,A,]2 [B,,A,]2 [B,,A,]2 | [E,G,]2 [E,B,]2 [E,E]2 | %7
 [F,=A,]2 [F,A,]2 [F,A,]2 | [B,,B,]4 B,B, | [A,C]2 [A,B,]2 [A,C]2 | [G,C]2 [C,C]2 [C,C]2 | %11
 [F,C]2 [B,,D]2 [B,,C]2 | [E,B,]4 [G,B,][G,B,] | [A,B,]2 [G,B,]2 [D,B,]2 | %14
 [E,G,]2 [C,G,]2 [A,,F,]2 | (E,G,) [B,,F,]2 [B,,A,]2 | [E,G,]4 |] %17
V:4
 x2 | x6 | x6 | x6 | x6 | x6 | x6 | x6 | x4 B,B, | x6 | x6 | x6 | x6 | x6 | x6 | B,,2 x4 | x4 |] %17

